!!!COM: Palestrina, Giovanni Perluigi da
!!!OPR: Missa O magnum mysterium
!!!OMD: Kyrie
!!!OTL: First Section
**kern	**kern	**kern	**kern	**kern
*Ibass	*Itenor	*Icalto	*Icalto	*Icant
!Bassus	!Tenor	!Altus 2	!Altus 1	!Cantus
*clefF4	*clefGv2	*clefG2	*clefG2	*clefG2
*k[]	*k[]	*k[]	*k[]	*k[]
*E:phr	*E:phr	*E:phr	*E:phr	*E:phr
*M4/2	*M4/2	*M4/2	*M4/2	*M4/2
=1	=1	=1	=1	=1
0r	1.E	1.B	1.e	1.g#
.	2E	2B	2e	2g#
=2	=2	=2	=2	=2
1r	1E	1B	1e	1g#
[1AA	1A	[1c#	[1e	[1a
=3	=3	=3	=3	=3
2AA]	1A	1c#]	1e]	1a]
2AA	.	.	.	.
1AA	1A	1c#	1e	1a
=4	=4	=4	=4	=4
0r	2r	[0d	2f#	2a
.	1D	.	1f#	1a
.	2D	.	2f#	2a
=5	=5	=5	=5	=5
0r	1D	0d]	1f#	1a
.	1G	.	1g	1b
=6	=6	=6	=6	=6
0r	2.F	2r	2.a	1cc
.	.	1A	.	.
.	4E	.	4g	.
.	4D	.	1f	2dd
.	4E	.	.	.
.	4F	2A	.	[2cc
.	4G	.	.	.
=7	=7	=7	=7	=7
0r	4A	1A	1e	4cc]
.	4B	.	.	4b
.	4c	.	.	1a
.	4A	.	.	.
.	1B	1d	2r	.
.	.	.	2d	2g#
=8	=8	=8	=8	=8
1.AA	1A	2.c	2e	[0a
.	.	.	2e	.
.	.	4B	.	.
.	2.c	4A	2f	.
.	.	4B	.	.
2AA	.	4c	[2e	.
.	4B	4d	.	.
=9	=9	=9	=9	=9
1AA	2.A	1e	4e]	0a]
.	.	.	4d	.
.	.	.	4c	.
.	4G	.	4B	.
1D	1F	1f	2.A	.
.	.	.	4B	.
=10	=10	=10	=10	=10
2.C	1G	2.e	4c	2r
.	.	.	4G	.
.	.	.	2.c	1e
4BB	.	4d	.	.
4AA	1A	[1c	.	.
4BB	.	.	4d	.
4C	.	.	4e	2e
4D	.	.	4f	.
=11	=11	=11	=11	=11
4E	1G	2c]	4g	1e
4F	.	.	4f	.
4G	.	2B	1e	.
4E	.	.	.	.
1F	1r	1A	.	1a
.	.	.	2d	.
=12	=12	=12	=12	=12
1E	2r	2B	1e	2g
.	2E	2B	.	4e
.	.	.	.	4f
1r	2E	2B	2r	4g
.	.	.	.	4a
.	2E	2B	2e	4b
.	.	.	.	4g
=13	=13	=13	=13	=13
0r	1.A	1c#	2e	1a
.	.	.	1e	.
.	.	2c#	.	2r
.	2D	[2d	[2f	2a
=14	=14	=14	=14	=14
0r	2D	4d]	2f]	2a
.	.	4e	.	.
.	1d	1f	2d	2a
.	.	.	2f	2b
.	2c	2e	2g	[2cc
=15	=15	=15	=15	=15
0r	2A	2f	1c	4cc]
.	.	.	.	4b
.	2c	2.e	.	1a
.	1B	.	1d	.
.	.	4d	.	.
.	.	[2d	.	2g#
=16	=16	=16	=16	=16
2r	1A	2d]	2r	0a
2AA	.	4c#	2e	.
.	.	4B	.	.
2AA	2r	1c#	2e	.
2AA	2A	.	2e	.
=17	=17	=17	=17	=17
1.D	2F	2r	1.f	2r
.	2D	1d	.	2a
.	[1A	.	.	2a
2AA	.	[2c	2e	2a
=18	=18	=18	=18	=18
2AA	1A]	2c]	1e	1cc
1A	.	2A	.	.
.	2.E	1B	2r	1b
2G	.	.	2e	.
.	4F	.	.	.
=19	=19	=19	=19	=19
2E	1G	2B	2d	1b
2G	.	1e	2B	.
1F	1A	.	2c	2r
.	.	2d	2d	[2a
=20	=20	=20	=20	=20
1E	0r	2c	1e	2a]
.	.	2B	.	2g
1C	.	1c	2r	2e
.	.	.	[2e	2g
=21	=21	=21	=21	=21
1D	2r	1A	2e]	1f
.	1A	.	2d	.
1E	.	2r	1B	2e
.	2G	[2e	.	[2g
=22	=22	=22	=22	=22
1r	2E	4e]	4c	4g]
.	.	4d	4B	4f
.	2G	2B	2B	1e
2r	1F	2c	1A	.
[2A	.	2A	.	2d
=23	=23	=23	=23	=23
2A]	2.E	0d	2r	1e
2G	.	.	1e	.
.	4F	.	.	.
2E	4G	.	.	1r
.	4A	.	.	.
[2G	4B	.	2d	.
.	4c	.	.	.
=24	=24	=24	=24	=24
2G]	1d	2r	2B	2r
2F	.	2A	2d	1a
1E	1r	2e	2c	.
.	.	2e	2B	2g
=25	=25	=25	=25	=25
2.C	2r	[0g	1c	2.e
.	1e	.	.	.
4D	.	.	.	4f
4E	.	.	[1B	4g
4F	.	.	.	4a
[2G	2d	.	.	4b
.	.	.	.	4cc
=26	=26	=26	=26	=26
2G]	2B	1g]	1B]	4dd
.	.	.	.	4cc
2GG	2d	.	.	2.b
1AA	1c	1e	2r	.
.	.	.	.	4a
.	.	.	2e	[2a
=27	=27	=27	=27	=27
0E	0B	2r	2e	2a]
.	.	2.e	2B	4g#
.	.	.	.	4f#
.	.	.	1e	1g#
.	.	4d	.	.
.	.	2B	.	.
=28	=28	=28	=28	=28
[0AA	[0A	[0c#	[0e	[0a
=29	=29	=29	=29	=29
0AA]	0A]	0c#]	0e]	0a]
*-	*-	*-	*-	*-
!!!CDT: 1525/^1526/-1594/2/2
!!!OCY: Italia
!!!AGN: Mass (Parody)
!!!AST: renaissance, vocal
!!!ASW: Motet 1569 (Palestrina)
!!!PWK: Masses, Book 4
!!!RNB: Cadence finals: A,C,G,F
!!!YOR: Le Opere Complete, v. 10, p. 150
!!!YOO: Rome, Italy: Fratelli Scalera
!!!END: 1992//
!!!EED: John Miller
!!!YEC: Copyright 2000, John Miller
!!!YEN: United States of America
!!!YEM: Rights to all derivative electronic formats reserved.
!!!YEM: Refer to licensing agreement for further details.
!!!YEM: This file must be accompanied by the licensing agreement.
!!!YEM: A copy of the licensing agreement may be found at http://www.music-cog.ohio-state.edu/HumdrumDatabases/Palestrina/license.txt
!!!EMD: converted to Humdrum by Bret Aarden
